packages/astro-components-stencil/src/icons/movie.svg

<svg xmlns="http://www.w3.org/2000/svg" viewBox="0 0 24 24"><g xmlns="http://www.w3.org/2000/svg" id="movie" fill-rule="nonzero">
            <path d="M18 4l1.82 3.64c.08.16-.04.36-.22.36h-1.98c-.38 0-.73-.21-.89-.55L15 4h-2l1.82 3.64c.08.16-.04.36-.22.36h-1.98c-.38 0-.73-.21-.89-.55L10 4H8l1.82 3.64c.08.16-.04.36-.22.36H7.62c-.38 0-.73-.21-.9-.55L5 4H4c-1.1 0-2 .9-2 2v12c0 1.1.9 2 2 2h16c1.1 0 2-.9 2-2V5c0-.55-.45-1-1-1h-3z"/>
        </g></svg>

<svg width="24" height="24" viewBox="0 0 24 24" fill="none" xmlns="http://www.w3.org/2000/svg">
<path d="M18 4L19.82 7.64C19.9 7.8 19.78 8 19.6 8H17.62C17.24 8 16.89 7.79 16.73 7.45L15 4H13L14.82 7.64C14.9 7.8 14.78 8 14.6 8H12.62C12.24 8 11.89 7.79 11.73 7.45L10 4H8L9.82 7.64C9.9 7.8 9.78 8 9.6 8H7.62C7.24 8 6.89 7.79 6.72 7.45L5 4H4C2.9 4 2 4.9 2 6V18C2 19.1 2.9 20 4 20H20C21.1 20 22 19.1 22 18V5C22 4.45 21.55 4 21 4H18Z" fill="black"/>
</svg>
